X: 30
T:Chez Jutier
M:2/4
L:1/8
R:Bourree
Z:Steve Mansfield
K:C
d>c de | f3 e/d/ | c>B cd | A4 | d>c de | fd g>e |
ed/c/ dB | c4:: d>e AB| GA/B/cB | d>e AB |
GA/B/ c2 | d>e AB | GA/B/ cB/c/ | d>e fd | gd c2:|
<end>
<start>
